Newaita-dark/apps/32/keepassxc.svg

<svg height="32pt" viewBox="0 0 32 32" width="32pt" xmlns="http://www.w3.org/2000/svg" xmlns:xlink="http://www.w3.org/1999/xlink"><linearGradient id="a"><stop offset="0" stop-opacity=".313725"/><stop offset=".222222" stop-opacity=".27451"/><stop offset="1" stop-opacity="0"/></linearGradient><radialGradient id="b" cx="450.90894" cy="189.57936" gradientTransform="matrix(.00000017 -.0781325 -.140638 -.0000001 44.523152 63.595332)" gradientUnits="userSpaceOnUse" r="21.166656" xlink:href="#a"/><radialGradient id="c" cx="450.90894" cy="189.57936" gradientTransform="matrix(-.00000017 .0781325 .140638 .0000001 -12.770121 -7.527481)" gradientUnits="userSpaceOnUse" r="21.166656" xlink:href="#a"/><radialGradient id="d" cx="450.90894" cy="189.57936" gradientTransform="matrix(-.00000017 -.0781325 .140638 -.0000001 -12.770121 63.595332)" gradientUnits="userSpaceOnUse" r="21.166656" xlink:href="#a"/><radialGradient id="e" cx="450.90894" cy="189.57936" gradientTransform="matrix(.00000017 .0781325 -.140638 .0000001 44.52315 -7.527482)" gradientUnits="userSpaceOnUse" r="21.166656" xlink:href="#a"/><linearGradient id="f" gradientTransform="matrix(.0133601 0 0 .062506 12.465386 13.438784)" gradientUnits="userSpaceOnUse" x1="255.32306" x2="255.32304" y1="233.5" y2="254.66666"><stop offset="0" stop-opacity=".27451"/><stop offset="1" stop-opacity="0"/></linearGradient><linearGradient id="g" gradientUnits="userSpaceOnUse" x1="254" x2="254" y1="-168.66666" y2="233.5"><stop offset="0" stop-color="#81c784"/><stop offset="1" stop-color="#66bb6a"/></linearGradient><linearGradient id="h" gradientUnits="userSpaceOnUse" x1="15.87648" x2="15.87648" y1="28.0338647916" y2="2.89610346856"><stop offset="0" stop-color="#bdbdbd"/><stop offset="1" stop-color="#e0e0e0"/></linearGradient><path d="m18.191406 28.035156h2.648438v-1.324218h-2.648438zm0 0" fill="url(#b)"/><path d="m13.5625 28.035156h-2.648438v1.320313h2.648438zm0 0" fill="url(#c)"/><path d="m13.5625 28.035156h-2.648438v-1.324218h2.648438zm0 0" fill="url(#d)"/><path d="m18.191406 28.035156h2.648438v1.320313h-2.648438zm0 0" fill="url(#e)"/><path d="m13.5625 27.703125h4.628906v1.652344h-4.628906zm0 0" fill="url(#f)"/><path d="m253.975747-168.691922c111.051895 0 201.105795 90.0539 201.105795 201.105795s-90.0539 201.105796-201.105795 201.105796c-111.051896 0-201.043302-90.053901-201.043302-201.105796s89.991406-201.105795 201.043302-201.105795zm0 0" fill="url(#g)" stroke="#333" stroke-linecap="round" stroke-width="3" transform="matrix(.062506 0 0 .062506 0 13.438783)"/><path d="m15.875 28.035156c-6.960938 0-12.566406-5.605468-12.566406-12.570312 0-.039063 0-.082032 0-.121094.066406 6.902344 5.644531 12.445312 12.566406 12.445312s12.503906-5.542968 12.570312-12.445312v.121094c0 6.964844-5.605468 12.570312-12.570312 12.570312zm0 0" fill-opacity=".196078"/><path d="m15.875 2.894531c-6.960938 0-12.566406 5.605469-12.566406 12.570313v.125c.066406-6.90625 5.644531-12.449219 12.566406-12.449219s12.503906 5.542969 12.570312 12.449219c0-.042969 0-.082032 0-.125 0-6.964844-5.605468-12.570313-12.570312-12.570313zm0 0" fill="#fff" fill-opacity=".392157"/><path d="m15.875 2.800781c-7.011719 0-12.660156 5.652344-12.660156 12.664063 0 7.011718 5.648437 12.664062 12.660156 12.664062 7.015625 0 12.664062-5.652344 12.664062-12.664062 0-7.011719-5.648437-12.664063-12.664062-12.664063zm0 .1875c6.914062 0 12.476562 5.5625 12.476562 12.476563 0 6.914062-5.5625 12.476562-12.476562 12.476562-6.910156 0-12.472656-5.5625-12.472656-12.476562 0-6.914063 5.5625-12.476563 12.472656-12.476563zm0 0" fill="#212121"/><path d="m15.855469 7.527344c-1.820313 0-3.285157 1.179687-3.285157 2.644531v3.96875h-1.339843c-.367188 0-.660157.265625-.660157.597656v.128907c0 .332031.292969.597656.660157.597656h9.261719c.367187 0 .660156-.265625.660156-.597656v-.128907c0-.332031-.292969-.597656-.660156-.597656h-1.308594v-3.96875c0-1.464844-1.464844-2.644531-3.285156-2.644531zm.019531 1.324218c1.101562 0 1.984375.882813 1.984375 1.984376v3.304687h-3.96875v-3.304687c0-1.101563.886719-1.984376 1.984375-1.984376zm-4.644531 7.273438c-.367188 0-.660157.296875-.660157.664062 0 .367188.292969.660157.660157.660157h3.324219v-1.324219zm5.96875 0v1.324219h3.292969c.367187 0 .660156-.292969.660156-.660157 0-.367187-.292969-.664062-.660156-.664062zm-5.96875 1.984375c-.367188 0-.660157.296875-.660157.664063 0 .367187.292969.660156.660157.660156h3.324219v-1.324219zm5.96875 0v1.324219h3.292969c.367187 0 .660156-.292969.660156-.660156 0-.367188-.292969-.664063-.660156-.664063zm-5.96875 1.984375c-.367188 0-.660157.269531-.660157.597656v.132813c0 .328125.292969.59375.660157.59375h9.261719c.367187 0 .660156-.265625.660156-.59375v-.132813c0-.328125-.292969-.597656-.660156-.597656zm0 0" fill="url(#h)"/><path d="m15.855469 7.527344c-1.820313 0-3.285157 1.179687-3.285157 2.644531v.496094c0-1.464844 1.464844-2.644531 3.285157-2.644531h.042969c1.820312 0 3.285156 1.179687 3.285156 2.644531v-.496094c0-1.464844-1.464844-2.644531-3.285156-2.644531zm-4.625 6.613281c-.367188 0-.660157.265625-.660157.597656v.128907c0 .066406.007813.125.03125.183593.085938-.238281.332032-.414062.628907-.414062h1.339843v-.496094zm2.660156 0v.496094h3.96875v-.496094zm5.292969 0v.496094h1.308594c.296874 0 .542968.175781.628906.414062.019531-.058593.03125-.117187.03125-.183593v-.128907c0-.332031-.292969-.597656-.660156-.597656zm-7.953125 1.984375c-.367188 0-.660157.296875-.660157.664062 0 .085938.015626.171876.046876.246094.097656-.242187.335937-.414062.613281-.414062h3.324219v-.496094zm5.96875 0v.496094h3.292969c.277343 0 .515624.171875.613281.414062.03125-.074218.046875-.160156.046875-.246094 0-.367187-.292969-.664062-.660156-.664062zm-5.96875 1.984375c-.367188 0-.660157.296875-.660157.664063 0 .085937.015626.171874.046876.246093.097656-.242187.335937-.414062.613281-.414062h3.324219v-.496094zm5.96875 0v.496094h3.292969c.277343 0 .515624.171875.613281.414062.03125-.074219.046875-.160156.046875-.246093 0-.367188-.292969-.664063-.660156-.664063zm-5.96875 1.984375c-.367188 0-.660157.269531-.660157.597656v.132813c0 .0625.007813.125.03125.179687.085938-.238281.332032-.414062.628907-.414062h9.261719c.296874 0 .542968.175781.628906.414062.019531-.054687.03125-.117187.03125-.179687v-.132813c0-.328125-.292969-.597656-.660156-.597656zm0 0" fill="#fff" fill-opacity=".392157"/><path d="m15.875 8.851562c-1.097656 0-1.984375.882813-1.984375 1.984376v.660156c0-1.101563.886719-1.984375 1.984375-1.984375 1.101562 0 1.984375.882812 1.984375 1.984375v-.660156c0-1.101563-.882813-1.984376-1.984375-1.984376zm-5.238281 6.28125c-.042969.082032-.066407.171876-.066407.265626v.132812c0 .328125.292969.59375.660157.59375h9.261719c.367187 0 .660156-.265625.660156-.59375v-.132812c0-.09375-.023438-.183594-.066406-.265626-.109376.199219-.332032.332032-.59375.332032h-9.261719c-.261719 0-.484375-.132813-.59375-.332032zm.019531 1.984376c-.054688.097656-.085938.210937-.085938.332031 0 .367187.292969.660156.660157.660156h3.324219v-.660156h-3.324219c-.246094 0-.460938-.132813-.574219-.332031zm10.410156 0c-.113281.199218-.328125.332031-.574218.332031h-3.292969v.660156h3.292969c.367187 0 .660156-.292969.660156-.660156 0-.121094-.03125-.234375-.085938-.332031zm-10.410156 1.984374c-.054688.097657-.085938.210938-.085938.332032 0 .367187.292969.660156.660157.660156h3.324219v-.660156h-3.324219c-.246094 0-.460938-.132813-.574219-.332032zm10.410156 0c-.113281.199219-.328125.332032-.574218.332032h-3.292969v.660156h3.292969c.367187 0 .660156-.292969.660156-.660156 0-.121094-.03125-.234375-.085938-.332032zm-10.429687 1.988282c-.042969.078125-.066407.167968-.066407.261718v.132813c0 .328125.292969.597656.660157.597656h9.261719c.367187 0 .660156-.269531.660156-.597656v-.132813c0-.09375-.023438-.183593-.066406-.261718-.109376.195312-.332032.328125-.59375.328125h-9.261719c-.261719 0-.484375-.132813-.59375-.328125zm0 0" fill-opacity=".235294"/><path d="m958.727356 455.153391c-110.068231 0-198.642451 71.331772-198.642451 159.905992v239.977086h-81.015886c-22.202604 0-39.917448 16.061459-39.917448 36.138282v7.794531c0 20.076823 17.714844 36.138282 39.917448 36.138282h560.025267c22.202605 0 39.917449-16.061459 39.917449-36.138282v-7.794531c0-20.076823-17.714844-36.138282-39.917449-36.138282h-79.126303v-239.977086c0-88.57422-88.57422-159.905992-198.64245-159.905992zm1.180989 80.071095c66.607814 0 119.988544 53.38073 119.988544 119.988543v199.82344h-239.977087v-199.82344c0-66.607813 53.616928-119.988543 119.988543-119.988543zm-280.839326 439.800526c-22.202604 0-39.917448 17.951042-39.917448 40.153647 0 22.202604 17.714844 39.917448 39.917448 39.917448h201.00443v-80.071095zm360.910421 0v80.071095h199.114846c22.202605 0 39.917449-17.714844 39.917449-39.917448 0-22.202605-17.714844-40.153647-39.917449-40.153647zm-360.910421 119.988543c-22.202604 0-39.917448 17.951042-39.917448 40.153647 0 22.202604 17.714844 39.917448 39.917448 39.917448h201.00443v-80.071095zm360.910421 0v80.071095h199.114846c22.202605 0 39.917449-17.714844 39.917449-39.917448 0-22.202605-17.714844-40.153647-39.917449-40.153647zm-360.910421 119.988544c-22.202604 0-39.917448 16.297656-39.917448 36.138281v8.03073c0 19.840625 17.714844 35.902083 39.917448 35.902083h560.025267c22.202605 0 39.917449-16.061458 39.917449-35.902083v-8.03073c0-19.840625-17.714844-36.138281-39.917449-36.138281zm0 0" fill="none" stroke="#212121" stroke-linecap="round" stroke-width="11.338583" transform="scale(.016538)"/></svg>

<?xml version="1.0" encoding="UTF-8"?>
<svg xmlns="http://www.w3.org/2000/svg" xmlns:xlink="http://www.w3.org/1999/xlink" width="32pt" height="32pt" viewBox="0 0 32 32" version="1.1">
<defs>
<radialGradient id="radial0" gradientUnits="userSpaceOnUse" cx="450.90894" cy="189.57936" fx="450.90894" fy="189.57936" r="21.166656" gradientTransform="matrix(0.00000017417,-0.0781325,-0.140638,-0.000000101539,44.523152,63.595332)">
<stop offset="0" style="stop-color:rgb(0%,0%,0%);stop-opacity:0.313725;"/>
<stop offset="0.222222" style="stop-color:rgb(0%,0%,0%);stop-opacity:0.27451;"/>
<stop offset="1" style="stop-color:rgb(0%,0%,0%);stop-opacity:0;"/>
</radialGradient>
<radialGradient id="radial1" gradientUnits="userSpaceOnUse" cx="450.90894" cy="189.57936" fx="450.90894" fy="189.57936" r="21.166656" gradientTransform="matrix(-0.00000017417,0.0781325,0.140638,0.000000101539,-12.770121,-7.527481)">
<stop offset="0" style="stop-color:rgb(0%,0%,0%);stop-opacity:0.313725;"/>
<stop offset="0.222222" style="stop-color:rgb(0%,0%,0%);stop-opacity:0.27451;"/>
<stop offset="1" style="stop-color:rgb(0%,0%,0%);stop-opacity:0;"/>
</radialGradient>
<radialGradient id="radial2" gradientUnits="userSpaceOnUse" cx="450.90894" cy="189.57936" fx="450.90894" fy="189.57936" r="21.166656" gradientTransform="matrix(-0.00000017417,-0.0781325,0.140638,-0.000000101539,-12.770121,63.595332)">
<stop offset="0" style="stop-color:rgb(0%,0%,0%);stop-opacity:0.313725;"/>
<stop offset="0.222222" style="stop-color:rgb(0%,0%,0%);stop-opacity:0.27451;"/>
<stop offset="1" style="stop-color:rgb(0%,0%,0%);stop-opacity:0;"/>
</radialGradient>
<radialGradient id="radial3" gradientUnits="userSpaceOnUse" cx="450.90894" cy="189.57936" fx="450.90894" fy="189.57936" r="21.166656" gradientTransform="matrix(0.00000017417,0.0781325,-0.140638,0.000000101539,44.52315,-7.527482)">
<stop offset="0" style="stop-color:rgb(0%,0%,0%);stop-opacity:0.313725;"/>
<stop offset="0.222222" style="stop-color:rgb(0%,0%,0%);stop-opacity:0.27451;"/>
<stop offset="1" style="stop-color:rgb(0%,0%,0%);stop-opacity:0;"/>
</radialGradient>
<linearGradient id="linear0" gradientUnits="userSpaceOnUse" x1="255.32306" y1="233.5" x2="255.32304" y2="254.66666" gradientTransform="matrix(0.0133601,0,0,0.062506,12.465386,13.438784)">
<stop offset="0" style="stop-color:rgb(0%,0%,0%);stop-opacity:0.27451;"/>
<stop offset="1" style="stop-color:rgb(0%,0%,0%);stop-opacity:0;"/>
</linearGradient>
<linearGradient id="linear1" gradientUnits="userSpaceOnUse" x1="254" y1="-168.66666" x2="254" y2="233.5" >
<stop offset="0" style="stop-color:rgb(50.588235%,78.039216%,51.764706%);stop-opacity:1;"/>
<stop offset="1" style="stop-color:rgb(40%,73.333333%,41.568627%);stop-opacity:1;"/>
</linearGradient>
<linearGradient id="linear2" gradientUnits="userSpaceOnUse" x1="960" y1="1695.1182" x2="960" y2="175.11812" gradientTransform="matrix(0.016538,0,0,0.016538,0,0)">
<stop offset="0" style="stop-color:rgb(74.117647%,74.117647%,74.117647%);stop-opacity:1;"/>
<stop offset="1" style="stop-color:rgb(87.843137%,87.843137%,87.843137%);stop-opacity:1;"/>
</linearGradient>
</defs>
<g id="surface1">
<path style=" stroke:none;fill-rule:nonzero;fill:url(#radial0);" d="M 18.191406 28.035156 L 20.839844 28.035156 L 20.839844 26.710938 L 18.191406 26.710938 Z M 18.191406 28.035156 "/>
<path style=" stroke:none;fill-rule:nonzero;fill:url(#radial1);" d="M 13.5625 28.035156 L 10.914062 28.035156 L 10.914062 29.355469 L 13.5625 29.355469 Z M 13.5625 28.035156 "/>
<path style=" stroke:none;fill-rule:nonzero;fill:url(#radial2);" d="M 13.5625 28.035156 L 10.914062 28.035156 L 10.914062 26.710938 L 13.5625 26.710938 Z M 13.5625 28.035156 "/>
<path style=" stroke:none;fill-rule:nonzero;fill:url(#radial3);" d="M 18.191406 28.035156 L 20.839844 28.035156 L 20.839844 29.355469 L 18.191406 29.355469 Z M 18.191406 28.035156 "/>
<path style=" stroke:none;fill-rule:nonzero;fill:url(#linear0);" d="M 13.5625 27.703125 L 18.191406 27.703125 L 18.191406 29.355469 L 13.5625 29.355469 Z M 13.5625 27.703125 "/>
<path style="fill-rule:nonzero;fill:url(#linear1);stroke-width:3;stroke-linecap:round;stroke-linejoin:miter;stroke:rgb(20%,20%,20%);stroke-opacity:1;stroke-miterlimit:4;" d="M 253.975747 -168.691922 C 365.027642 -168.691922 455.081542 -78.638022 455.081542 32.413873 C 455.081542 143.465768 365.027642 233.519669 253.975747 233.519669 C 142.923851 233.519669 52.932445 143.465768 52.932445 32.413873 C 52.932445 -78.638022 142.923851 -168.691922 253.975747 -168.691922 Z M 253.975747 -168.691922 " transform="matrix(0.062506,0,0,0.062506,0,13.438783)"/>
<path style=" stroke:none;fill-rule:nonzero;fill:rgb(0%,0%,0%);fill-opacity:0.196078;" d="M 15.875 28.035156 C 8.914062 28.035156 3.308594 22.429688 3.308594 15.464844 C 3.308594 15.425781 3.308594 15.382812 3.308594 15.34375 C 3.375 22.246094 8.953125 27.789062 15.875 27.789062 C 22.796875 27.789062 28.378906 22.246094 28.445312 15.34375 C 28.445312 15.382812 28.445312 15.425781 28.445312 15.464844 C 28.445312 22.429688 22.839844 28.035156 15.875 28.035156 Z M 15.875 28.035156 "/>
<path style=" stroke:none;fill-rule:nonzero;fill:rgb(100%,100%,100%);fill-opacity:0.392157;" d="M 15.875 2.894531 C 8.914062 2.894531 3.308594 8.5 3.308594 15.464844 C 3.308594 15.507812 3.308594 15.546875 3.308594 15.589844 C 3.375 8.683594 8.953125 3.140625 15.875 3.140625 C 22.796875 3.140625 28.378906 8.683594 28.445312 15.589844 C 28.445312 15.546875 28.445312 15.507812 28.445312 15.464844 C 28.445312 8.5 22.839844 2.894531 15.875 2.894531 Z M 15.875 2.894531 "/>
<path style=" stroke:none;fill-rule:nonzero;fill:rgb(12.941176%,12.941176%,12.941176%);fill-opacity:1;" d="M 15.875 2.800781 C 8.863281 2.800781 3.214844 8.453125 3.214844 15.464844 C 3.214844 22.476562 8.863281 28.128906 15.875 28.128906 C 22.890625 28.128906 28.539062 22.476562 28.539062 15.464844 C 28.539062 8.453125 22.890625 2.800781 15.875 2.800781 Z M 15.875 2.988281 C 22.789062 2.988281 28.351562 8.550781 28.351562 15.464844 C 28.351562 22.378906 22.789062 27.941406 15.875 27.941406 C 8.964844 27.941406 3.402344 22.378906 3.402344 15.464844 C 3.402344 8.550781 8.964844 2.988281 15.875 2.988281 Z M 15.875 2.988281 "/>
<path style=" stroke:none;fill-rule:nonzero;fill:url(#linear2);" d="M 15.855469 7.527344 C 14.035156 7.527344 12.570312 8.707031 12.570312 10.171875 L 12.570312 14.140625 L 11.230469 14.140625 C 10.863281 14.140625 10.570312 14.40625 10.570312 14.738281 L 10.570312 14.867188 C 10.570312 15.199219 10.863281 15.464844 11.230469 15.464844 L 20.492188 15.464844 C 20.859375 15.464844 21.152344 15.199219 21.152344 14.867188 L 21.152344 14.738281 C 21.152344 14.40625 20.859375 14.140625 20.492188 14.140625 L 19.183594 14.140625 L 19.183594 10.171875 C 19.183594 8.707031 17.71875 7.527344 15.898438 7.527344 Z M 15.875 8.851562 C 16.976562 8.851562 17.859375 9.734375 17.859375 10.835938 L 17.859375 14.140625 L 13.890625 14.140625 L 13.890625 10.835938 C 13.890625 9.734375 14.777344 8.851562 15.875 8.851562 Z M 11.230469 16.125 C 10.863281 16.125 10.570312 16.421875 10.570312 16.789062 C 10.570312 17.15625 10.863281 17.449219 11.230469 17.449219 L 14.554688 17.449219 L 14.554688 16.125 Z M 17.199219 16.125 L 17.199219 17.449219 L 20.492188 17.449219 C 20.859375 17.449219 21.152344 17.15625 21.152344 16.789062 C 21.152344 16.421875 20.859375 16.125 20.492188 16.125 Z M 11.230469 18.109375 C 10.863281 18.109375 10.570312 18.40625 10.570312 18.773438 C 10.570312 19.140625 10.863281 19.433594 11.230469 19.433594 L 14.554688 19.433594 L 14.554688 18.109375 Z M 17.199219 18.109375 L 17.199219 19.433594 L 20.492188 19.433594 C 20.859375 19.433594 21.152344 19.140625 21.152344 18.773438 C 21.152344 18.40625 20.859375 18.109375 20.492188 18.109375 Z M 11.230469 20.09375 C 10.863281 20.09375 10.570312 20.363281 10.570312 20.691406 L 10.570312 20.824219 C 10.570312 21.152344 10.863281 21.417969 11.230469 21.417969 L 20.492188 21.417969 C 20.859375 21.417969 21.152344 21.152344 21.152344 20.824219 L 21.152344 20.691406 C 21.152344 20.363281 20.859375 20.09375 20.492188 20.09375 Z M 11.230469 20.09375 "/>
<path style=" stroke:none;fill-rule:nonzero;fill:rgb(100%,100%,100%);fill-opacity:0.392157;" d="M 15.855469 7.527344 C 14.035156 7.527344 12.570312 8.707031 12.570312 10.171875 L 12.570312 10.667969 C 12.570312 9.203125 14.035156 8.023438 15.855469 8.023438 L 15.898438 8.023438 C 17.71875 8.023438 19.183594 9.203125 19.183594 10.667969 L 19.183594 10.171875 C 19.183594 8.707031 17.71875 7.527344 15.898438 7.527344 Z M 11.230469 14.140625 C 10.863281 14.140625 10.570312 14.40625 10.570312 14.738281 L 10.570312 14.867188 C 10.570312 14.933594 10.578125 14.992188 10.601562 15.050781 C 10.6875 14.8125 10.933594 14.636719 11.230469 14.636719 L 12.570312 14.636719 L 12.570312 14.140625 Z M 13.890625 14.140625 L 13.890625 14.636719 L 17.859375 14.636719 L 17.859375 14.140625 Z M 19.183594 14.140625 L 19.183594 14.636719 L 20.492188 14.636719 C 20.789062 14.636719 21.035156 14.8125 21.121094 15.050781 C 21.140625 14.992188 21.152344 14.933594 21.152344 14.867188 L 21.152344 14.738281 C 21.152344 14.40625 20.859375 14.140625 20.492188 14.140625 Z M 11.230469 16.125 C 10.863281 16.125 10.570312 16.421875 10.570312 16.789062 C 10.570312 16.875 10.585938 16.960938 10.617188 17.035156 C 10.714844 16.792969 10.953125 16.621094 11.230469 16.621094 L 14.554688 16.621094 L 14.554688 16.125 Z M 17.199219 16.125 L 17.199219 16.621094 L 20.492188 16.621094 C 20.769531 16.621094 21.007812 16.792969 21.105469 17.035156 C 21.136719 16.960938 21.152344 16.875 21.152344 16.789062 C 21.152344 16.421875 20.859375 16.125 20.492188 16.125 Z M 11.230469 18.109375 C 10.863281 18.109375 10.570312 18.40625 10.570312 18.773438 C 10.570312 18.859375 10.585938 18.945312 10.617188 19.019531 C 10.714844 18.777344 10.953125 18.605469 11.230469 18.605469 L 14.554688 18.605469 L 14.554688 18.109375 Z M 17.199219 18.109375 L 17.199219 18.605469 L 20.492188 18.605469 C 20.769531 18.605469 21.007812 18.777344 21.105469 19.019531 C 21.136719 18.945312 21.152344 18.859375 21.152344 18.773438 C 21.152344 18.40625 20.859375 18.109375 20.492188 18.109375 Z M 11.230469 20.09375 C 10.863281 20.09375 10.570312 20.363281 10.570312 20.691406 L 10.570312 20.824219 C 10.570312 20.886719 10.578125 20.949219 10.601562 21.003906 C 10.6875 20.765625 10.933594 20.589844 11.230469 20.589844 L 20.492188 20.589844 C 20.789062 20.589844 21.035156 20.765625 21.121094 21.003906 C 21.140625 20.949219 21.152344 20.886719 21.152344 20.824219 L 21.152344 20.691406 C 21.152344 20.363281 20.859375 20.09375 20.492188 20.09375 Z M 11.230469 20.09375 "/>
<path style=" stroke:none;fill-rule:nonzero;fill:rgb(0%,0%,0%);fill-opacity:0.235294;" d="M 15.875 8.851562 C 14.777344 8.851562 13.890625 9.734375 13.890625 10.835938 L 13.890625 11.496094 C 13.890625 10.394531 14.777344 9.511719 15.875 9.511719 C 16.976562 9.511719 17.859375 10.394531 17.859375 11.496094 L 17.859375 10.835938 C 17.859375 9.734375 16.976562 8.851562 15.875 8.851562 Z M 10.636719 15.132812 C 10.59375 15.214844 10.570312 15.304688 10.570312 15.398438 L 10.570312 15.53125 C 10.570312 15.859375 10.863281 16.125 11.230469 16.125 L 20.492188 16.125 C 20.859375 16.125 21.152344 15.859375 21.152344 15.53125 L 21.152344 15.398438 C 21.152344 15.304688 21.128906 15.214844 21.085938 15.132812 C 20.976562 15.332031 20.753906 15.464844 20.492188 15.464844 L 11.230469 15.464844 C 10.96875 15.464844 10.746094 15.332031 10.636719 15.132812 Z M 10.65625 17.117188 C 10.601562 17.214844 10.570312 17.328125 10.570312 17.449219 C 10.570312 17.816406 10.863281 18.109375 11.230469 18.109375 L 14.554688 18.109375 L 14.554688 17.449219 L 11.230469 17.449219 C 10.984375 17.449219 10.769531 17.316406 10.65625 17.117188 Z M 21.066406 17.117188 C 20.953125 17.316406 20.738281 17.449219 20.492188 17.449219 L 17.199219 17.449219 L 17.199219 18.109375 L 20.492188 18.109375 C 20.859375 18.109375 21.152344 17.816406 21.152344 17.449219 C 21.152344 17.328125 21.121094 17.214844 21.066406 17.117188 Z M 10.65625 19.101562 C 10.601562 19.199219 10.570312 19.3125 10.570312 19.433594 C 10.570312 19.800781 10.863281 20.09375 11.230469 20.09375 L 14.554688 20.09375 L 14.554688 19.433594 L 11.230469 19.433594 C 10.984375 19.433594 10.769531 19.300781 10.65625 19.101562 Z M 21.066406 19.101562 C 20.953125 19.300781 20.738281 19.433594 20.492188 19.433594 L 17.199219 19.433594 L 17.199219 20.09375 L 20.492188 20.09375 C 20.859375 20.09375 21.152344 19.800781 21.152344 19.433594 C 21.152344 19.3125 21.121094 19.199219 21.066406 19.101562 Z M 10.636719 21.089844 C 10.59375 21.167969 10.570312 21.257812 10.570312 21.351562 L 10.570312 21.484375 C 10.570312 21.8125 10.863281 22.082031 11.230469 22.082031 L 20.492188 22.082031 C 20.859375 22.082031 21.152344 21.8125 21.152344 21.484375 L 21.152344 21.351562 C 21.152344 21.257812 21.128906 21.167969 21.085938 21.089844 C 20.976562 21.285156 20.753906 21.417969 20.492188 21.417969 L 11.230469 21.417969 C 10.96875 21.417969 10.746094 21.285156 10.636719 21.089844 Z M 10.636719 21.089844 "/>
<path style="fill:none;stroke-width:11.338583;stroke-linecap:round;stroke-linejoin:miter;stroke:rgb(12.941176%,12.941176%,12.941176%);stroke-opacity:1;stroke-miterlimit:4;" d="M 958.727356 455.153391 C 848.659125 455.153391 760.084905 526.485163 760.084905 615.059383 L 760.084905 855.036469 L 679.069019 855.036469 C 656.866415 855.036469 639.151571 871.097928 639.151571 891.174751 L 639.151571 898.969282 C 639.151571 919.046105 656.866415 935.107564 679.069019 935.107564 L 1239.094286 935.107564 C 1261.296891 935.107564 1279.011735 919.046105 1279.011735 898.969282 L 1279.011735 891.174751 C 1279.011735 871.097928 1261.296891 855.036469 1239.094286 855.036469 L 1159.967983 855.036469 L 1159.967983 615.059383 C 1159.967983 526.485163 1071.393763 455.153391 961.325533 455.153391 Z M 959.908345 535.224486 C 1026.516159 535.224486 1079.896889 588.605216 1079.896889 655.213029 L 1079.896889 855.036469 L 839.919802 855.036469 L 839.919802 655.213029 C 839.919802 588.605216 893.53673 535.224486 959.908345 535.224486 Z M 679.069019 975.025012 C 656.866415 975.025012 639.151571 992.976054 639.151571 1015.178659 C 639.151571 1037.381263 656.866415 1055.096107 679.069019 1055.096107 L 880.073449 1055.096107 L 880.073449 975.025012 Z M 1039.97944 975.025012 L 1039.97944 1055.096107 L 1239.094286 1055.096107 C 1261.296891 1055.096107 1279.011735 1037.381263 1279.011735 1015.178659 C 1279.011735 992.976054 1261.296891 975.025012 1239.094286 975.025012 Z M 679.069019 1095.013555 C 656.866415 1095.013555 639.151571 1112.964597 639.151571 1135.167202 C 639.151571 1157.369806 656.866415 1175.08465 679.069019 1175.08465 L 880.073449 1175.08465 L 880.073449 1095.013555 Z M 1039.97944 1095.013555 L 1039.97944 1175.08465 L 1239.094286 1175.08465 C 1261.296891 1175.08465 1279.011735 1157.369806 1279.011735 1135.167202 C 1279.011735 1112.964597 1261.296891 1095.013555 1239.094286 1095.013555 Z M 679.069019 1215.002099 C 656.866415 1215.002099 639.151571 1231.299755 639.151571 1251.14038 L 639.151571 1259.17111 C 639.151571 1279.011735 656.866415 1295.073193 679.069019 1295.073193 L 1239.094286 1295.073193 C 1261.296891 1295.073193 1279.011735 1279.011735 1279.011735 1259.17111 L 1279.011735 1251.14038 C 1279.011735 1231.299755 1261.296891 1215.002099 1239.094286 1215.002099 Z M 679.069019 1215.002099 " transform="matrix(0.016538,0,0,0.016538,0,0)"/>
</g>
</svg>
